!!!OTL: Yuankan huanghe shi yitiao xian
!!!ARE: Asia, China,ÿQinghai, Dongbu)
!! I, 252
!!!SCT: C1436
!!!YEM: Copyright 1995, estate of Helmut Schaffrath.
**kern
*ICvox
*Ivox
*M3/8
*k[b-e-]
*B-:
{8cc
4cc
=1
8g
4g
=2
8cc
8dd
8ff
=3
[4.gg
=4
4.gg]}
=5
{8cc
8dd
8ff
=6
8gg
8ff
16ff
16gg
=7
16ff
16dd
8dd
8r
=8
[4.g
=9
4.g]}
=10
{8cc
8dd
8ff
=11
8ff
8gg
16gg
16ff
=12
8dd
16dd
16ff
16dd
16cc
=13
8cc
8b-
16g
16b-
=14
8cc
8cc
8b-
=15
8g
4g
=16
[4.g
=17
4.g]}
==
!!!AGN: Shange, Huar, Sanhuasao jing
!!!ONB: ESAC (Essen Associative Code) Database: HUANG
!!!AMT: simple triple
!!!AIN: vox
!!!EED: Helmut Schaffrath
!!!EEV: 1.0
*-
!!!ONB: Tied note syntax fixed by Craig Sapp, 2004/05/03/
